X: 20062
T: Old Sir Simon the King
%R: slip-jig
B: James Oswald "The Caledonian Pocket Companion" v.2 p.6 #2 (and 3 staves at the top of p.7)
Z: 2019 John Chambers <jc:trillian.mit.edu>
M: 9/8
L: 1/16
K: C
%%slurgraces 1
%%graceslurs 1
G2 |\
A3Bc2 c3dc2 c4G2 | A3Bc2 c3de2 {e}f4c2 |\
A2F2F2 F2G2F2 A2B2c2 | d4c2 TB4A2 G4 :|
|: a2 |\
g4f2 Te4d2 c4a2 | g4f2 e2d2e2 f4c2 |\
TA4F2 F2f2F2 A2B2c2 | d4c2 (TB2A2)B2 G4 :|
|: G2 |\
(ABc2)G2 c2G2E2 c4G2 | (ABc2)c2 c2d2e2 f2g2a2 |\
A4F2 f2A2F2 A2B2c2 | d(g^fedc) B(edcBA) G4 :|
|: a2 |\
g2e2c2 f2d2B2 c2G2a2 | (gfed)c2 (gfed)c2 f2g2a2 |\
A2F2f2 (c_BAG)F2 A2=B2c2 | B2g2d2 (BcdcBA) G4 :|
|: G2 |\
(ABcBAG)  c2G2E2 {B}c4G2 | (ABc2)G2 (ABcBAG) c2e2g2 |\
F2(A_BcA) F2(A_BcA) F2A2F2 | G2(BcdB) g2(dcBA) G4 :|
|: G2 |\
c2(efge) g2(efge) c2(efge) | c2(efge) g2(efge) f2c2a2 |\
A2(FGA_B) c2A2F2 c2A2F2 | g2(^fedc) B2(dcBA) G4 :|
